assets/icons/librescoot-gps-fix-established.svg

<svg xmlns="http://www.w3.org/2000/svg" width="144" height="144" fill="none" viewBox="0 0 144 144"><g clip-path="url(#a)"><path fill="#fff" d="M67.725 136.8v-11.025c-13.65-1.4-24.9625-6.588-33.9375-15.563S19.625 89.9249 18.225 76.2749H7.2v-8.625h11.025q2.1-20.4749 15.5625-33.8999T67.725 18.225V7.2h8.625v11.025q20.475 2.1 33.9 15.525t15.525 33.8999H136.8v8.625h-11.025c-1.4 13.65-6.575 24.9621-15.525 33.9371S90 124.375 76.35 125.775V136.8zm4.3545-19.5q18.6781 0 31.9495-13.35c8.848-8.9001 13.271-19.5765 13.271-32.0296 0-12.452-4.423-23.102-13.271-31.95Q90.7576 26.6999 72.0795 26.7 53.4 26.7 40.05 39.9704q-13.35 13.272-13.35 31.95Q26.7 90.6 40.05 103.95t32.0295 13.35M72 94.05q-9.336 0-15.693-6.3571T49.95 72q0-9.336 6.357-15.693T72 49.95t15.693 6.357T94.05 72t-6.357 15.6929Q81.336 94.0499 72 94.05"/></g><defs><clipPath id="a"><path fill="#fff" d="M0 0h144v144H0z"/></clipPath></defs></svg>

<svg width="144" height="144" viewBox="0 0 144 144" fill="none" xmlns="http://www.w3.org/2000/svg">
    <g clip-path="url(#clip0_400_985)">
        <g>
            <path d="M67.725 136.8V125.775C54.075 124.375 42.7625 119.187 33.7875 110.212C24.8125 101.237 19.625 89.9249 18.225 76.2749H7.2V67.6499H18.225C19.625 54 24.8125 42.7 33.7875 33.75C42.7625 24.8 54.075 19.625 67.725 18.225V7.19995H76.35V18.225C90 19.625 101.3 24.8 110.25 33.75C119.2 42.7 124.375 54 125.775 67.6499H136.8V76.2749H125.775C124.375 89.9249 119.2 101.237 110.25 110.212C101.3 119.187 90 124.375 76.35 125.775V136.8H67.725ZM72.0795 117.3C84.5315 117.3 95.1815 112.85 104.029 103.95C112.877 95.0499 117.3 84.3735 117.3 71.9204C117.3 59.4684 112.877 48.8184 104.029 39.9704C95.1815 31.1234 84.5315 26.7 72.0795 26.7C59.6265 26.7 48.95 31.1234 40.05 39.9704C31.15 48.8184 26.7 59.4684 26.7 71.9204C26.7 84.3735 31.15 95.0499 40.05 103.95C48.95 112.85 59.6265 117.3 72.0795 117.3ZM72 94.05C65.776 94.05 60.545 91.9309 56.307 87.6929C52.069 83.4549 49.95 78.224 49.95 72C49.95 65.776 52.069 60.545 56.307 56.307C60.545 52.069 65.776 49.95 72 49.95C78.224 49.95 83.455 52.069 87.693 56.307C91.931 60.545 94.05 65.776 94.05 72C94.05 78.224 91.931 83.4549 87.693 87.6929C83.455 91.9309 78.224 94.05 72 94.05Z" fill="white"/>
        </g>
    </g>
    <defs>
        <clipPath id="clip0_400_985">
            <rect width="144" height="144" fill="white"/>
        </clipPath>
    </defs>
</svg>
